src/assets/svg/pin.svg

<svg viewBox="0 0 16 16" version="1.1"
    xmlns="http://www.w3.org/2000/svg"
    xmlns:xlink="http://www.w3.org/1999/xlink">
    <title>Group</title>
    <g id="Page-1" stroke="none" stroke-width="1" fill="none" fill-rule="evenodd">
        <g id="Group" transform="translate(0.000000, 0.000000)" fill="#000000" fill-rule="nonzero">
            <path d="M5.21151264,0 C5.32097889,0.00168297765 5.41533118,0.0774944219 5.44051264,0.184037661 C5.63412551,0.983452188 5.62622242,1.81843113 5.41751264,2.61403766 L8.69851264,5.89603766 C9.79451264,5.59603766 11.0485126,5.70903766 12.2525126,6.25303766 C12.3236204,6.28529538 12.3743824,6.35038056 12.3883502,6.42720355 C12.402318,6.50402655 12.3777148,6.5828145 12.3225126,6.63803766 L9.99551264,8.96503766 C11.5815126,10.5520377 15.9435126,15.9440377 15.9435126,15.9440377 C15.9435126,15.9440377 10.6055126,11.6340377 8.96651264,9.99503766 L6.63851264,12.3220377 C6.58328105,12.3767996 6.50477617,12.4011192 6.4282592,12.3871708 C6.35174224,12.3732224 6.28686837,12.3227661 6.25451264,12.2520377 C5.70951264,11.0480377 5.59751264,9.79403766 5.89651264,8.69803766 L2.61651264,5.41803766 C1.82035122,5.62767037 0.984496392,5.63557525 0.18451264,5.44103766 C0.100252913,5.42160209 0.0331641622,5.3579941 0.00927124847,5.27488831 C-0.0146216653,5.19178252 0.00844092095,5.10225603 0.0695126399,5.04103766 L5.04051264,0.0700376609 C5.08587127,0.0241803432 5.14802254,-0.00111377468 5.21251264,0 L5.21151264,0 Z" id="Path"></path>
        </g>
    </g>
</svg>

<svg width="1024" height="1024" viewBox="0 0 16 16"
    xmlns="http://www.w3.org/2000/svg">
    <path d="M5.212 0a.24.24 0 0 1 .229.184c.193.8.185 1.634-.023 2.43l3.28 3.282c1.097-.3 2.35-.187 3.555.357a.238.238 0 0 1 .07.385L9.996 8.965c1.586 1.587 5.948 6.979 5.948 6.979s-5.338-4.31-6.977-5.949l-2.328 2.327a.238.238 0 0 1-.384-.07c-.545-1.204-.657-2.458-.358-3.554l-3.28-3.28a4.954 4.954 0 0 1-2.432.023.238.238 0 0 1-.115-.4L5.04.07A.236.236 0 0 1 5.214 0h-.001Z" fill="#000" fill-rule="nonzero"/>
</svg>
